X:1
T:Title
%%score { ( 1 3 6 ) | ( 2 4 5 ) }
L:1/8
M:4/4
K:Db
V:1 treble nm="Grand Piano"
V:3 treble 
V:6 treble 
V:2 bass 
V:4 bass 
V:5 bass 
V:1
 z4 z2[Q:1/4=96] [DF]>[EG] | [FA]>[_F=G] [=FA]>[_GB] [FA]2 [DF]>[FA] | %2
[M:3/4] [Fd]>[Ec] [Fd]>[Ge] [Fd]2 |[M:1/4] [Ad]>[Ac] |[M:4/4] B>=A B>[_Ac] [Bd]>[Bd] [Ac]>[GB] | %5
[M:3/4] [FA]>[GB] [FA]>[DF] [CE]2 |[M:1/4] [DF]>[EG] | %7
[M:4/4] [FA]>[_F=G] [=FA]>[_GB] [FA]>[DF] [EG]>[FA] |[M:3/4] B>c B>=A B2 |[M:1/4] B>B | %10
[M:4/4] e>e d>d c>A B>c |[M:7/8] [Fd]2 [Gd]>[Gd] [Fd]3 |[M:1/4] A>A | %13
[M:4/4] d->[Fd-] [Fd-]>[Fd-] [Fd]>d (3[Ac]BA |[M:3/4] [GB]4 [FA]2 |[M:1/4] F>[EG] | %16
[M:4/4] [FA]>[FA] [_F=G]>[=FA] [_GB]>[FA] (3[FA][A,EG][A,DF] | [CE]6 z2 | %18
 [FA]>[_F=G] [=FA]>[_GB] [FA]>[DF] [EG]>[FA] |[M:3/4] B>c B>=A B2 |[M:1/4] B>B | %21
[M:4/4] e>e d>d c>A B>c |[M:15/8] [Fd]2 [Gd]-[Gd]/[Gd]/ [Fd]2- [Fd] z2 z6 |] %23
V:2
 z4 z2 [D,A,]>[D,A,] | [D,D]>[D,D] [D,D]>[D,D] [D,D]2 [D,A,]>[D,D] | %2
[M:3/4] [D,A,]>[D,A,] [D,A,]>[D,A,] [D,A,]2 |[M:1/4] [F,D]>[F,D] | %4
[M:4/4] [G,DG]>[G,DG] [G,DG]>[G,D] [G,D]>[G,D] [G,D]>[G,D] | %5
[M:3/4] [D,D]>[D,D] [D,D]>[D,A,] [A,,A,]2 |[M:1/4] [D,A,]>[D,A,] | %7
[M:4/4] [D,D]>[D,D] [D,D]>[D,D] [D,D]>[D,A,] [D,A,]>[D,D] | %8
[M:3/4] [G,DG]>[G,DG] [G,DG]>[G,DG] [G,DG]2 |[M:1/4] [G,DG]>[G,DG] | %10
[M:4/4] [=G,B,E]>[E,G,E] [F,A,E]>[G,B,E] [A,E]>[_G,A,C] [F,A,D]>[E,A,E] | %11
[M:7/8] [D,A,]2 [D,B,]>[D,B,] [D,A,]3 |[M:1/4] A,>A, | %13
[M:4/4] [D,A,]>[D,A,] [D,A,]>[D,A,] z z/[K:treble] B/ (3z GF |[M:3/4][K:bass] D,D, (3D,D,D, D,>D, | %15
[M:1/4] [D,A,D]>[D,A,] |[M:4/4] [D,D]>[D,D] [D,D]>[D,D] [D,D]>[D,D] (3[D,D]E,F, | z4 A,2 z2 | %18
 [D,D]>[D,D] [D,D]>[D,D] [D,D]>[D,A,] [D,A,]>[D,D] |[M:3/4] [G,DG]>[G,DG] [G,DG]>[G,DG] [G,DG]2 | %20
[M:1/4] [G,DG]>[G,DG] |[M:4/4] [=G,B,E]>[E,G,E] [F,A,E]>[G,B,E] [A,E]>[_G,A,C] [F,A,D]>[E,A,E] | %22
[M:15/8] [D,A,]2 [D,B,]-[D,B,]/[D,B,]/ [D,A,]2- [D,A,] z2 z6 |] %23
V:3
 x8 | x8 |[M:3/4] x6 |[M:1/4] x2 |[M:4/4] x8 |[M:3/4] x6 |[M:1/4] x2 |[M:4/4] x8 |[M:3/4] x6 | %9
[M:1/4] x2 |[M:4/4] x8 |[M:7/8] x7 |[M:1/4] x2 |[M:4/4] F2 z2 z4 |[M:3/4] z D (3DDD D>D | %15
[M:1/4] x2 |[M:4/4] x8 | z z/ B,/ z z/ B,/ z2 [A,DF]>[A,EG] | x8 |[M:3/4] x6 |[M:1/4] x2 | %21
[M:4/4] x8 |[M:15/8] x15 |] %23
V:4
 x8 | x8 |[M:3/4] x6 |[M:1/4] x2 |[M:4/4] x8 |[M:3/4] x6 |[M:1/4] x2 |[M:4/4] x8 |[M:3/4] x6 | %9
[M:1/4] x2 |[M:4/4] x8 |[M:7/8] x7 |[M:1/4] x2 |[M:4/4] z4 [D,A,]2[K:treble] D2 | %14
[M:3/4][K:bass] x6 |[M:1/4] x2 |[M:4/4] x8 | A,>=G, A,>G, z z/ _G,/ F,>E, | x8 |[M:3/4] x6 | %20
[M:1/4] x2 |[M:4/4] x8 |[M:15/8] x15 |] %23
V:5
 x8 | x8 |[M:3/4] x6 |[M:1/4] x2 |[M:4/4] x8 |[M:3/4] x6 |[M:1/4] x2 |[M:4/4] x8 |[M:3/4] x6 | %9
[M:1/4] x2 |[M:4/4] x8 |[M:7/8] x7 |[M:1/4] x2 |[M:4/4] z4 z2[K:treble] D,2 |[M:3/4][K:bass] x6 | %15
[M:1/4] x2 |[M:4/4] x8 | x8 | x8 |[M:3/4] x6 |[M:1/4] x2 |[M:4/4] x8 |[M:15/8] x15 |] %23
V:6
 x8 | x8 |[M:3/4] x6 |[M:1/4] x2 |[M:4/4] x8 |[M:3/4] x6 |[M:1/4] x2 |[M:4/4] x8 |[M:3/4] x6 | %9
[M:1/4] x2 |[M:4/4] x8 |[M:7/8] x7 |[M:1/4] x2 |[M:4/4] x8 |[M:3/4] .D2 z2 z2 |[M:1/4] x2 | %16
[M:4/4] x8 | x8 | x8 |[M:3/4] x6 |[M:1/4] x2 |[M:4/4] x8 |[M:15/8] x15 |] %23

